!!!COM: Palestrina, Giovanni Perluigi da
!!!OPR: Missa Gabriel Archangelus
!!!OMD: Benedictus
!!!OTL: First Section
**kern	**kern	**kern
*Icalto	*Icalto	*Icant
!Altus 2	!Altus 1	!Cantus
*clefG2	*clefG2	*clefG2
*k[b-]	*k[b-]	*k[b-]
*D:aeo	*D:aeo	*D:aeo
*M4/2	*M4/2	*M4/2
=1	=1	=1
0r	0a	0r
=2	=2	=2
0r	1d	0r
.	[1g	.
=3	=3	=3
0r	2g]	0dd
.	2f#	.
.	2.g	.
.	4f	.
=4	=4	=4
1r	1e-	1g
[1a	1d	[1dd
=5	=5	=5
1a]	2r	2dd]
.	2B-	2cc#
1d	2c	2.dd
.	[2G	.
.	.	4cc
=6	=6	=6
1.g	4G]	1b-
.	4A	.
.	4B-	.
.	4c	.
.	1d	2a
2f#	.	2a
=7	=7	=7
2.g	1G	2b-
.	.	2.g
4f	.	.
1e-	2r	.
.	.	4a
.	2g	4b-
.	.	4cc
=8	=8	=8
1d	2f	4dd
.	.	4ee
.	4d	2.ff
.	4e	.
2r	4f	.
.	4g	4ee
2A	2a	2cc
=9	=9	=9
2B-	2f	0dd
2.G	2.b-	.
4A	4a	.
4B-	[2g	.
4c	.	.
=10	=10	=10
1d	2g]	2r
.	2f#	2a
1G	[1g	2b-
.	.	4g
.	.	4a
=11	=11	=11
2r	1g]	4b-
.	.	4cc
2g	.	2.dd
2f	1r	.
.	.	4cc
4d	.	[2ff
4e	.	.
=12	=12	=12
4f	1r	2ff]
4g	.	.
2a	.	2ee
2f	2r	[1dd
[2b-	2G	.
=13	=13	=13
4b-]	2B-	2dd]
4a	.	.
1g	2c	4cc
.	.	4b-
.	1d	1a
2f#	.	.
=14	=14	=14
0g	2r	1g
.	2G	.
.	2B-	2r
.	2c	2g
=15	=15	=15
0r	2d	2b-
.	2e	2cc
.	2f	2dd
.	2c	2ee
=16	=16	=16
2r	1d	4ff
.	.	4ee
2G	.	4dd
.	.	4cc
2B-	2r	2dd
2c	2e	4cc
.	.	4b-
=17	=17	=17
1d	2.f	2.a
.	4g	4b-
2r	2a	2cc
2G	[2b-	[2dd
=18	=18	=18
2B-	2b-]	2dd]
2c	1a	2cc
2d	.	1b-
2e	2g	.
=19	=19	=19
2f	2a	[0a
2c	2e	.
1d	2.f	.
.	4e	.
=20	=20	=20
2r	2d	1a]
2e	2c#	.
2.f	1d	2r
.	.	2a
4g	.	.
=21	=21	=21
2a	2c	2cc
1b-	2B-	2dd
.	2c	2ee
[2a	2d	[2ff
=22	=22	=22
2a]	1B-	2ff]
2g	.	4ee
.	.	4dd
2a	1A	1cc
2e	.	.
=23	=23	=23
2.f	2r	0a
.	2d	.
4e	.	.
2d	2f	.
2c#	2e	.
=24	=24	=24
1d	2.f	2r
.	.	2a
.	4g	.
2c	2a	2cc
2B-	[2g	2dd
=25	=25	=25
2c	2g]	2ee
2d	2f	2.ff
1B-	2d	.
.	.	4ee
.	2d	[2dd
=26	=26	=26
1A	2f	2dd]
.	2e	2cc#
2r	2.f	1dd
2d	.	.
.	4g	.
=27	=27	=27
2f	2a	[0cc
2e	2.g	.
2.f	.	.
.	4f	.
.	[2f	.
4g	.	.
=28	=28	=28
2a	2f]	1cc]
1g	2e	.
.	2.d	2r
2f	.	2a
.	4c	.
=29	=29	=29
2d	1B-	2dd
2d	.	2dd
2f	1A	2.cc
2e	.	.
.	.	4b-
=30	=30	=30
2.f	0r	2a
.	.	1ff
4g	.	.
2a	.	.
[2g	.	2ee
=31	=31	=31
4g]	2r	1dd
4f	.	.
1f	2d	.
.	2g	1r
2e	2g	.
=32	=32	=32
2.d	2.f	1a
4c	4e	.
1B-	1d	2dd
.	.	2dd
=33	=33	=33
1A	2r	2.cc
.	2A	.
.	.	4b-
1r	2d	2a
.	2d	[2ff
=34	=34	=34
1r	2.c	2ff]
.	.	2.ee
.	4B-	.
2r	2A	.
.	.	4dd
2d	[2f	[2dd
=35	=35	=35
2g	4f]	4dd]
.	4e	4cc#
2g	2e	2cc#
2.f	2.d	[1dd
4e	4e	.
=36	=36	=36
1d	4f	2dd]
.	4g	.
.	2a	4cc
.	.	4b-
2r	2f	1a
2A	[2a	.
=37	=37	=37
2d	4a]	1f
.	4g	.
2d	1f	.
2.c	.	1g
.	2e	.
4B-	.	.
=38	=38	=38
2A	2.f	2.a
2.f	.	.
.	4e	4g
.	2d	4a
4e	.	4b-
2e	2c	[2a
=39	=39	=39
2.d	2B-	2a]
.	2B-	2g
4e	.	.
4f	1A	[1a
4g	.	.
2a	.	.
=40	=40	=40
2f	2r	1a]
2.a	2A	.
.	2d	2r
4g	.	.
[2f	2d	2d
=41	=41	=41
2f]	1c	2g
2e	.	2g
2.f	2r	1f
.	[2f	.
4e	.	.
=42	=42	=42
2d	2f]	2r
2c	2e	2a
2B-	2f	2dd
2B-	4e	2dd
.	4d	.
=43	=43	=43
1A	2e	1cc
.	2e	.
2r	2d	2ff
2A	2c#	2ee
=44	=44	=44
2d	2r	2dd
2d	2d	1ff
1c	2g	.
.	2g	2ee
=45	=45	=45
2r	2.f	2dd
1f	.	2cc
.	4e	.
.	2d	2dd
2e	2c	[2ee
=46	=46	=46
2f	2B-	4ee]
.	.	4dd
4e	2B-	1dd
4d	.	.
2e	1A	.
2e	.	2cc#
=47	=47	=47
[0d	[0d	[0dd
=48	=48	=48
0d]	0d]	0dd]
*-	*-	*-
!!!CDT: 1525/^1526/-1594/2/2
!!!OCY: Italia
!!!AGN: Mass (Parody)
!!!AST: renaissance, vocal
!!!ASW: Motet 1532 (Verdelot)
!!!PWK: Masses, Book I
!!!RNB: Cadence finals: A,F
!!!YOR: Le Opere Complete, v. 1, p. 93
!!!YOO: Rome, Italy: Fratelli Scalera
!!!END: 1992//
!!!EED: John Miller
!!!YEC: Copyright 2000, John Miller
!!!YEN: United States of America
!!!YEM: Rights to all derivative electronic formats reserved.
!!!YEM: Refer to licensing agreement for further details.
!!!YEM: This file must be accompanied by the licensing agreement.
!!!YEM: A copy of the licensing agreement may be found at http://www.music-cog.ohio-state.edu/HumdrumDatabases/Palestrina/license.txt
!!!EMD: converted to Humdrum by Bret Aarden
